src/build/icons/LineIcons/add.svg

<svg width="40" height="40" version="1.1" viewBox="0 -2 40 40" xmlns="http://www.w3.org/2000/svg">
 <g fill="none" fill-rule="evenodd">
  <g transform="translate(-96,-1033)" fill="#f00">
   <path d="m130 1063c0 1.1-0.896 2-2 2h-24c-1.104 0-2-0.9-2-2v-24c0-1.1 0.896-2 2-2h24c1.104 0 2 0.9 2 2zm-2-28h-24c-2.209 0-4 1.79-4 4v24c0 2.21 1.791 4 4 4h24c2.209 0 4-1.79 4-4v-24c0-2.21-1.791-4-4-4zm-6 15h-5v-5c0-0.55-0.448-1-1-1s-1 0.45-1 1v5h-5c-0.552 0-1 0.45-1 1s0.448 1 1 1h5v5c0 0.55 0.448 1 1 1s1-0.45 1-1v-5h5c0.552 0 1-0.45 1-1s-0.448-1-1-1z"/>
  </g>
 </g>
</svg>

<svg width="40px" height="40px" viewBox="0 0 40 40" version="1.1" xmlns="http://www.w3.org/2000/svg" xmlns:xlink="http://www.w3.org/1999/xlink">
    <defs>
        <filter x="-1.7%" y="-0.9%" width="103.4%" height="101.8%" filterUnits="objectBoundingBox" id="filter-1">
            <feOffset dx="0" dy="2" in="SourceAlpha" result="shadowOffsetOuter1"></feOffset>
            <feGaussianBlur stdDeviation="2" in="shadowOffsetOuter1" result="shadowBlurOuter1"></feGaussianBlur>
            <feColorMatrix values="0 0 0 0 0   0 0 0 0 0   0 0 0 0 0  0 0 0 0.5 0" type="matrix" in="shadowBlurOuter1" result="shadowMatrixOuter1"></feColorMatrix>
            <feMerge>
                <feMergeNode in="shadowMatrixOuter1"></feMergeNode>
                <feMergeNode in="SourceGraphic"></feMergeNode>
            </feMerge>
        </filter>
    </defs>
    <g id="Page-1" stroke="none" stroke-width="1" fill="none" fill-rule="evenodd">
        <g id="Icon-Set" filter="url(#filter-1)" transform="translate(-96.000000, -1033.000000)" fill="#FFFFFE">
            <path d="M130,1063 C130,1064.1 129.104,1065 128,1065 L104,1065 C102.896,1065 102,1064.1 102,1063 L102,1039 C102,1037.9 102.896,1037 104,1037 L128,1037 C129.104,1037 130,1037.9 130,1039 L130,1063 L130,1063 Z M128,1035 L104,1035 C101.791,1035 100,1036.79 100,1039 L100,1063 C100,1065.21 101.791,1067 104,1067 L128,1067 C130.209,1067 132,1065.21 132,1063 L132,1039 C132,1036.79 130.209,1035 128,1035 L128,1035 Z M122,1050 L117,1050 L117,1045 C117,1044.45 116.552,1044 116,1044 C115.448,1044 115,1044.45 115,1045 L115,1050 L110,1050 C109.448,1050 109,1050.45 109,1051 C109,1051.55 109.448,1052 110,1052 L115,1052 L115,1057 C115,1057.55 115.448,1058 116,1058 C116.552,1058 117,1057.55 117,1057 L117,1052 L122,1052 C122.552,1052 123,1051.55 123,1051 C123,1050.45 122.552,1050 122,1050 L122,1050 Z" id="Fill-42"></path>
        </g>
    </g>
</svg>
